X:1
T:Ung bien à moy
T:Antoine de Mornable
T:Source : Livre XVI de 29 chansons nouvelles à 4 parties---Paris---P.Attaingnant---1545. Editor : André Vierendeels (04/07/18) Notes : Original clefs : C1, C3, C4, F4 Original note values have been halved Original note values have been quartered in 3-beat measures Editorial accidentals above the staff Dotted brackets indicate black notes
T:Ung bien à moy
T:©
T:©
T:©
C:Antoine de Mornable
Z:©
%%score [ 1 2 3 4 ]
L:1/8
Q:1/4=120
M:2/2
K:C
V:1 treble nm="Soprano" snm="S"
V:2 treble nm="Alto" snm="A"
V:3 treble-8 nm="Tenor" snm="T"
V:4 bass nm="Bass" snm="B"
V:1
 z4 G4 | c2 c2 B2 B2 | G2 G2 A2 GF | G4 F4 | z2 A4 c2 | c2 G3 FGA | B2 A2 A2 G2 |[M:2/4] G2 F2 |1 %8
w: Ung|bien à moy si|tres grand se pre- *|sen- te,|que ie|ne puis, _ _ _|_ ne veulx fai-|re ref-|
w: L'en-|tre- pri- s'est pour|mes for- ces pe- *|san- te,|l'ef- faict|don- nes _ _ _|_ tant com- ble|que rien|
 G4 :|2[M:3/4] G4 z2 || B2 B2 B2 | G4 B2 | c4 B2 | A4 G2 |[M:2/2] A2 c2 cBAG | A2 G4 F2 | %16
w: fuz,|plus,|per- plex ain-|si ie|de- meu-|re con-|fuz, car la _ _ _|_ gran- *|
w: _||||||||
 G2 G2 G2 A2 | F2 F2 E2 G2 | A2 G2 G4 | c2 B4 B2 | A2 c4 BA | G4 B4 | c2 c2 A3 B | c2 d3 c c2- | %24
w: deur me def- fent|dy tou- cher, har-|dy me rend|le bien d'en|ap- pro- * *|cher, mais|du plai- sir ve-|nant à- * moy|
w: ||||||||
[M:2/4] c2 B2 |[M:3/4] c4 z2 |: B2 B2 A2 | B4 B2 | c4 B2 | A4 c2 | B4 z2 | B2 B2 B2 | G4 G2 | %33
w: _ s'of-|frir,|ioy- e ne|veulx pour|le veoir|rep- pro-|cher,|à qui pour-|roit de|
w: |||||||||
[M:2/2] A2 G2 G2 F2 | G8 :| %35
w: ma ioy- e souf-|frir.|
w: ||
V:2
 D4 E3 F | G2 G2 G2 G2 | D2 E3 D D2- | D2 C2 D2 D2- | D2 F2 F2 C2 | E4 D4 | G2 F3 EDC | %7
w: Ung bien à|moy si tres grand|se pre- * sen-|* * te, que|_ ie ne puis,|ne veulx|fai- re _ _ _|
w: L'en- tre- pri-|s'est pour mes for-|ces pe- * san-|* * te, l'ef-|* faict don- nes|tant com-|ble ne _ _ _|
[M:2/4] D4 |1 B,4 :|2[M:3/4] B,4 z2 || G2 G2 G2 | D4 G2 | G4 G2 | E2 E4 |[M:2/2] C2 E2 E2 F2- | %15
w: re-|fuz,|plus,|per- plex ain-|si ie|de- meu-|re con-|fuz, car la gran-|
w: rien|_|||||||
 FEDC D2 D2 | B,2 B,2 C4 | D4 G,2 E2 | F2 D2 E4 | G2 G4 G2 | FE E4 D2 | E2 E2 G2 G2 | G4 F4 | %23
w: * * * * deur me|def- fent dy|tou- cher, har-|dy me rend|le bien d'en|ap _ _ pro-|cher, mais du plai-|sir ve-|
w: ||||||||
 A6 F2 |[M:2/4] G2 G2 |[M:3/4] E4 z2 |: G2 G2 F2 | G4 G2 | G4 G2 | E4 F2 | G4 z2 | G2 G2 G2 | %32
w: nant à|moy s'of-|frir,|ioy- e ne|veulx pour|le veoir|rep- pro-|cher,|à qui pour-|
w: |||||||||
 E4 D2 |[M:2/2] E2 C2 D2 D2 | B,8 :| %35
w: roit de|ma ioy- e souf-|frir.|
w: |||
V:3
 G4 cBcd | e2 e2 d2 d2 | B2 B2 c2 d2 | G4 A4- | A4 A4 | c2 c2 BABc | d2 d2 c2 B2 |[M:2/4] A2 A2 |1 %8
w: Ung bien _ _ _|_ à moy si|tres grand se pre-|sen- te,|_ que|ie ne puis, _ _ _|_ ne veulx fai-|re ref-|
w: L'en- tre- * * *|* pri- s'est pour|mes for- ces pe-|san- te,|_ l'ef-|faict don- nes _ _ _|_ tant com- ble|que rien|
 G4 :|2[M:3/4] G4 z2 || d2 d2 d2 | B4 d2 | e4 d2 | c2 B4 |[M:2/2] A4 z2 c2 | c2 B2 A2 A2 | %16
w: fuz,|plus,|per- plex ain-|si ie|de- meu-|re con-|fuz, car|la gran- deur me|
w: _||||||||
 B2 d3 c c2- | c2 B2 c2 c2 | A2 B2 c4 | e2 d4 d2 | cBAG A2 A2 | B4 z2 e2 | e2 e2 c2 c2 | %23
w: def- fent _ dy|_ tou- cher, har-|dy me rend|le bien d'en|ap- * * * * pro-|cher, mais|du plai- sir ve-|
w: |||||||
 f2 f2 e2 dc |[M:2/4] d4 |[M:3/4] c4 z2 |: d2 d2 d2 | d4 d2 | e4 d2 | c4 c2 | d4 z2 | d2 d2 d2 | %32
w: nant à moy _ _|s'of-|frir,|ioy- e ne|veulx pour|le veoir|rep- pro-|cher,|à qui pour-|
w: |||||||||
 c4 B2 |[M:2/2] cB AG A2 A2 | G8 :| %35
w: roit de|ma _ ioy- * e souf-|frir.|
w: |||
V:4
 z4 C,4 | C,2 C,2 G,2 G,2 | G,2 G,2 F,2 E,D, | E,4 D,4 | D,4 F,2 F,2 | C,D,E,F, G,4- | %6
w: Ung|bien à moy si|tres grand se- pre- *|sen- te,|que ie ne|puis, _ _ _ _|
w: L'en-|tre- pri- s'est pour|mes for- ces pe- *|san- te,|l'ef- faict don-|nes _ _ _ tant|
 G,2 D,2 F,2 G,2 |[M:2/4] D,2 D,2 |1 G,,4 :|2[M:3/4] G,,4 z2 || G,2 G,2 G,2 | G,4 G,2 | C,4 G,2 | %13
w: _ ne veulx fai-|re ref-|fuz,|plus,|per- plex ain-|si ie|de- meu-|
w: _ com- ble _|que rien|_|||||
 A,2 E,4 |[M:2/2] A,,2 A,2 A,G,F,E, | F,2 G,2 D,2 D,2 | G,4 E,2 F,2 | D,4 C,2 C,2 | F,2 G,2 C,4 | %19
w: re con-|fuz, car la _ _ _|_ gran- deur me|def- fent dy|tou- cher, har-|dy me rend|
w: ||||||
 C,2 G,4 G,2 | A,4 F,4 | E,2 E,2 E,2 E,2 | C,2 C,2 F,4- | F,2 D,2 A,4 |[M:2/4] G,4 | %25
w: le bien d'en|ap- pro-|cher, mais du plai-|sir ve- nant|_ à moy|s'of-|
w: ||||||
[M:3/4] C,4 z2 |: G,2 G,2 D,2 | G,4 G,2 | C4 G,2 |"^#" A,4 A,2 | G,4 z2 | G,2 G,2 G,2 | C,4 F,,2 | %33
w: frir,|ioy- e ne|veulx, pour|le veoir|re- pro-|cher,|à qui pour-|roit de|
w: ||||||||
[M:2/2] C,2 E,2 D,2 D,2 | G,,8 :| %35
w: ma ioy- e souf-|frir.|
w: ||

